public/icons/linkedin-icon.svg

<svg width="32" height="33" viewBox="0 0 32 33" fill="white" xmlns="http://www.w3.org/2000/svg">
<path fill-rule="evenodd" clip-rule="evenodd" d="M8.3564 29.9303V11.8719H2.3548V29.9303H8.3564V29.9303ZM5.35623 9.40728C7.44845 9.40728 8.75174 8.01944 8.75174 6.28656C8.71218 4.51516 7.44845 3.1665 5.39546 3.1665C3.34214 3.16656 2 4.51522 2 6.28662C2 8.0195 3.30258 9.40734 5.31672 9.40734L5.35623 9.40728ZM11.678 29.9303C11.678 29.9303 11.7568 13.5663 11.678 11.872H17.6806V14.4909H17.6407C18.43 13.2585 19.8519 11.4479 23.0895 11.4479C27.0394 11.4479 30 14.0289 30 19.5758V29.9304H23.9985V20.2697C23.9985 17.8422 23.1301 16.1858 20.9575 16.1858C19.2998 16.1858 18.3118 17.3025 17.8779 18.3819C17.7192 18.7661 17.6806 19.3058 17.6806 19.8455V29.9303H11.678Z" />
</svg>

<svg width="32" height="33" viewBox="0 0 32 33" fill="#fff" xmlns="http://www.w3.org/2000/svg">
    <path fill-rule="evenodd" clip-rule="evenodd"
        d="M8.356 29.93V11.872H2.355V29.93h6.001zm-3-20.523c2.092 0 3.396-1.388 3.396-3.12-.04-1.772-1.304-3.12-3.357-3.12S2 4.514 2 6.287c0 1.733 1.303 3.12 3.317 3.12h.04zm6.322 20.523s.079-16.364 0-18.058h6.003v2.619h-.04c.789-1.232 2.21-3.043 5.449-3.043 3.95 0 6.91 2.58 6.91 8.128V29.93h-6.002v-9.66c0-2.428-.868-4.084-3.04-4.084-1.658 0-2.646 1.116-3.08 2.196-.159.384-.197.924-.197 1.463V29.93h-6.003z" />
</svg>
